X:5555
T:Rigadoon 2
O:england
R:Rigadoon
M:6/4
L:1/4
K:G
E/F/ | G2 EBGE | e2f gfe | dcB A2c | B3-B2 :|
|:G/A/| \
B2G dBG | A2F cAF | G2E BGE | \
F2^D EFG | AFB G2F | E3-E2:|


